src/img/icons/external-link.svg

<svg width="32" height="32" viewBox="0 0 32 32" fill="none" xmlns="http://www.w3.org/2000/svg">
<path d="M6.55212 28C5.83894 28 5.23529 27.7529 4.74118 27.2588C4.24706 26.7647 4 26.1611 4 25.4479V6.55212C4 5.83894 4.24706 5.23529 4.74118 4.74118C5.23529 4.24706 5.83894 4 6.55212 4H14.398C14.6985 4 14.9501 4.10141 15.1529 4.30424C15.3555 4.50682 15.4568 4.75835 15.4568 5.05882C15.4568 5.35929 15.3555 5.61082 15.1529 5.81341C14.9501 6.01624 14.6985 6.11765 14.398 6.11765H6.55212C6.44341 6.11765 6.34388 6.16294 6.25353 6.25353C6.16294 6.34388 6.11765 6.44341 6.11765 6.55212V25.4479C6.11765 25.5566 6.16294 25.6561 6.25353 25.7465C6.34388 25.8371 6.44341 25.8824 6.55212 25.8824H25.4479C25.5566 25.8824 25.6561 25.8371 25.7465 25.7465C25.8371 25.6561 25.8824 25.5566 25.8824 25.4479V17.602C25.8824 17.3015 25.9838 17.0499 26.1866 16.8471C26.3892 16.6445 26.6407 16.5432 26.9412 16.5432C27.2416 16.5432 27.4932 16.6445 27.6958 16.8471C27.8986 17.0499 28 17.3015 28 17.602V25.4479C28 26.1611 27.7529 26.7647 27.2588 27.2588C26.7647 27.7529 26.1611 28 25.4479 28H6.55212ZM25.8824 7.6053L13.5241 19.9639C13.3286 20.1592 13.0828 20.2592 12.7868 20.2639C12.4911 20.2684 12.2408 20.1684 12.0361 19.9639C11.8316 19.7592 11.7294 19.5112 11.7294 19.2199C11.7294 18.9286 11.8316 18.6806 12.0361 18.4759L24.3947 6.11765H19.8824C19.5819 6.11765 19.3304 6.01624 19.1278 5.81341C18.9249 5.61082 18.8235 5.35929 18.8235 5.05882C18.8235 4.75835 18.9249 4.50682 19.1278 4.30424C19.3304 4.10141 19.5819 4 19.8824 4H26.7238C27.0878 4 27.3914 4.12176 27.6347 4.36529C27.8782 4.60859 28 4.91223 28 5.27623V12.1176C28 12.4181 27.8986 12.6696 27.6958 12.8722C27.4932 13.0751 27.2416 13.1765 26.9412 13.1765C26.6407 13.1765 26.3892 13.0751 26.1866 12.8722C25.9838 12.6696 25.8824 12.4181 25.8824 12.1176V7.6053Z" fill="#131212"/>
</svg>

<svg xmlns="http://www.w3.org/2000/svg" viewBox="0 0 32 32">
  <path fill="currentColor" d="M6.552 28a2.464 2.464 0 0 1-1.81-.741A2.463 2.463 0 0 1 4 25.448V6.552c0-.713.247-1.317.741-1.81A2.463 2.463 0 0 1 6.552 4h7.846c.3 0 .552.101.755.304.202.203.304.454.304.755 0 .3-.102.552-.304.754a1.025 1.025 0 0 1-.755.305H6.552a.414.414 0 0 0-.298.136.414.414 0 0 0-.136.298v18.896c0 .109.045.208.136.299.09.09.19.135.298.135h18.896a.414.414 0 0 0 .299-.136c.09-.09.135-.19.135-.298v-7.846c0-.3.102-.552.305-.755.202-.203.454-.304.754-.304s.552.102.755.304c.203.203.304.454.304.755v7.846c0 .713-.247 1.317-.741 1.81a2.463 2.463 0 0 1-1.811.742H6.552Zm19.33-20.395L13.524 19.964a1.025 1.025 0 0 1-.737.3.999.999 0 0 1-.75-.3 1.014 1.014 0 0 1-.308-.744c0-.291.103-.54.307-.744L24.395 6.118h-4.513c-.3 0-.552-.102-.754-.305a1.024 1.024 0 0 1-.305-.754c0-.3.102-.552.305-.755.202-.203.454-.304.754-.304h6.842c.364 0 .667.122.91.365.244.244.366.547.366.911v6.842c0 .3-.101.552-.304.754a1.024 1.024 0 0 1-.755.305c-.3 0-.552-.102-.754-.305a1.024 1.024 0 0 1-.305-.754V7.605Z"/>
</svg>
